icons/tv-fill.svg

<svg viewBox="0 0 24 24" fill="currentColor" xmlns="http://www.w3.org/2000/svg"><path d="M15.4142 4.99998H21.0082C21.556 4.99998 22 5.44461 22 6.00085V19.9991C22 20.5519 21.5447 21 21.0082 21H2.9918C2.44405 21 2 20.5553 2 19.9991V6.00085C2 5.44808 2.45531 4.99998 2.9918 4.99998H8.58579L6.05025 2.46445L7.46447 1.05023L11.4142 4.99998H12.5858L16.5355 1.05023L17.9497 2.46445L15.4142 4.99998Z"/></svg>

<svg xmlns="http://www.w3.org/2000/svg" viewBox="0 0 24 24">
    <g>
        <path fill="none" d="M0 0h24v24H0z"/>
        <path d="M15.414 5h5.594c.548 0 .992.445.992 1v14c0 .552-.455 1-.992 1H2.992A.994.994 0 0 1 2 20V6c0-.552.455-1 .992-1h5.594L6.05 2.464 7.464 1.05 11.414 5h1.172l3.95-3.95 1.414 1.414L15.414 5z"/>
    </g>
</svg>
